svg/publishing/groups.svg

<svg width="16" height="16" viewBox="0 0 16 16" fill="none" xmlns="http://www.w3.org/2000/svg">
<path d="M5.28901 5.97563V6.50363C5.28718 6.57725 5.27678 6.65041 5.25801 6.72163C5.22481 6.81947 5.16816 6.90771 5.09301 6.97863C5.02217 7.03919 4.94128 7.08691 4.85401 7.11963C4.78945 7.14067 4.72191 7.15114 4.65401 7.15063C4.62358 7.15065 4.59318 7.14865 4.56301 7.14463H0.872011C0.79916 7.14298 0.726717 7.13325 0.656011 7.11563C0.564424 7.08546 0.480723 7.03524 0.411011 6.96863C0.34623 6.89774 0.294742 6.81576 0.259011 6.72663C0.226238 6.63263 0.216968 6.53203 0.232011 6.43363L0.227011 5.97563C0.227956 5.83586 0.273045 5.69997 0.355837 5.58737C0.438629 5.47477 0.55489 5.39121 0.688011 5.34863C1.03438 5.22798 1.36718 5.07146 1.68101 4.88163C1.59175 4.74632 1.52426 4.59785 1.48101 4.44163C1.38893 4.31453 1.33132 4.16576 1.3138 4.0098C1.29627 3.85383 1.31943 3.69599 1.38101 3.55163V3.17363C1.37064 3.00328 1.39725 2.83271 1.45901 2.67363C1.52394 2.50067 1.62639 2.34425 1.75901 2.21563C1.89242 2.08749 2.05163 1.98931 2.22601 1.92763C2.40096 1.86865 2.58584 1.84486 2.77001 1.85763C2.92549 1.84328 3.08222 1.86342 3.22901 1.91663C3.40884 1.97649 3.57313 2.07554 3.71001 2.20663C3.84721 2.33788 3.95191 2.49931 4.01579 2.67811C4.07968 2.85692 4.10098 3.04815 4.07801 3.23663V3.50963C4.09849 3.5484 4.11555 3.58889 4.12901 3.63063C4.16677 3.74349 4.1805 3.86301 4.1693 3.9815C4.15811 4.09999 4.12224 4.21483 4.06401 4.31863C4.04508 4.3578 4.02335 4.39556 3.99901 4.43163C3.95661 4.5909 3.89198 4.7434 3.80701 4.88463C4.14511 5.07552 4.49991 5.23518 4.86701 5.36163C4.93257 5.38529 4.99226 5.42281 5.04201 5.47163C5.09767 5.53289 5.14662 5.59994 5.18801 5.67163C5.22838 5.7102 5.2587 5.75808 5.2763 5.81107C5.29391 5.86406 5.29827 5.92056 5.28901 5.97563V5.97563ZM10.699 13.4096C10.6213 13.2569 10.4866 13.1408 10.324 13.0866C9.95633 12.9578 9.60808 12.7792 9.28901 12.5556C9.36364 12.4333 9.4215 12.3014 9.46101 12.1636C9.49053 12.1265 9.51695 12.0871 9.54001 12.0456C9.59639 11.9422 9.63045 11.8281 9.64001 11.7106C9.65162 11.5915 9.63834 11.4713 9.60101 11.3576C9.58728 11.3165 9.57057 11.2764 9.55101 11.2376V10.9036C9.56751 10.721 9.54404 10.5371 9.48221 10.3645C9.42039 10.1919 9.32171 10.0348 9.19303 9.90424C9.06435 9.77366 8.90877 9.67268 8.73711 9.60833C8.56544 9.54398 8.38182 9.51781 8.19901 9.53162C8.0162 9.51781 7.83258 9.54398 7.66092 9.60833C7.48925 9.67268 7.33367 9.77366 7.20499 9.90424C7.07631 10.0348 6.97763 10.1919 6.91581 10.3645C6.85399 10.5371 6.83051 10.721 6.84701 10.9036V11.2686C6.78903 11.4089 6.76654 11.5613 6.78154 11.7124C6.79654 11.8635 6.84857 12.0085 6.93301 12.1346C6.97586 12.2932 7.04334 12.444 7.13301 12.5816C6.86901 12.7356 6.37701 12.9556 6.08601 13.0816C5.95871 13.1283 5.84862 13.2126 5.77038 13.3234C5.69215 13.4341 5.64947 13.566 5.64801 13.7016L5.65301 14.1596C5.63961 14.2607 5.65023 14.3635 5.68401 14.4596C5.72076 14.547 5.77254 14.6272 5.83701 14.6966C5.90678 14.7637 5.99091 14.8139 6.08301 14.8436C6.15334 14.8616 6.22545 14.8716 6.29801 14.8736L9.98901 14.8686C10.0188 14.8726 10.0489 14.8746 10.079 14.8746C10.1469 14.8754 10.2145 14.8649 10.279 14.8436C10.3693 14.8101 10.4527 14.7602 10.525 14.6966C10.5961 14.6261 10.6501 14.5402 10.683 14.4456C10.7021 14.3748 10.7128 14.302 10.715 14.2286V13.8146C10.7578 13.682 10.7522 13.5385 10.699 13.4096V13.4096ZM15.521 5.46963C15.4716 5.42189 15.4126 5.38509 15.348 5.36163C14.998 5.23973 14.6608 5.08399 14.341 4.89663C14.4224 4.76865 14.4847 4.62953 14.526 4.48363C14.5559 4.44677 14.5823 4.40727 14.605 4.36563C14.6632 4.26181 14.699 4.14697 14.7102 4.02849C14.7214 3.91001 14.7077 3.7905 14.67 3.67763C14.6568 3.63674 14.6404 3.59696 14.621 3.55863V3.22263C14.637 3.03996 14.6129 2.85601 14.5506 2.68356C14.4883 2.51111 14.3892 2.3543 14.2601 2.22403C14.1311 2.09375 13.9752 1.99314 13.8034 1.92917C13.6315 1.86521 13.4478 1.83943 13.265 1.85363C13.0825 1.84004 12.8993 1.86628 12.7279 1.93051C12.5566 1.99475 12.4012 2.09546 12.2726 2.22566C12.144 2.35587 12.0453 2.51246 11.9832 2.6846C11.9211 2.85674 11.8971 3.04032 11.913 3.22263V3.58663C11.8549 3.72707 11.8324 3.87967 11.8474 4.0309C11.8624 4.18213 11.9145 4.32733 11.999 4.45363C12.0418 4.61188 12.1093 4.7624 12.199 4.89963C11.935 5.05363 11.443 5.27463 11.151 5.39963C11.0239 5.44647 10.914 5.53085 10.836 5.64158C10.7579 5.75231 10.7154 5.88416 10.714 6.01963V6.47863C10.7001 6.57673 10.7093 6.67674 10.741 6.77063C10.7774 6.8626 10.831 6.94677 10.899 7.01863C10.9691 7.08644 11.054 7.13709 11.147 7.16663C11.2164 7.18425 11.2875 7.19397 11.359 7.19563H15.05C15.0802 7.19958 15.1106 7.20159 15.141 7.20163C15.2088 7.20209 15.2763 7.19197 15.341 7.17163C15.4277 7.13788 15.5081 7.08989 15.579 7.02963C15.6518 6.9617 15.7074 6.87736 15.741 6.78363C15.7618 6.70934 15.7732 6.63275 15.775 6.55563V5.97563C15.7699 5.87801 15.7444 5.78256 15.7001 5.69541C15.6558 5.60826 15.5938 5.53135 15.518 5.46963H15.521ZM11.239 2.60363C11.2723 2.54692 11.2941 2.48419 11.3031 2.41905C11.3122 2.3539 11.3083 2.28762 11.2916 2.22399C11.275 2.16036 11.246 2.10063 11.2062 2.04823C11.1665 1.99583 11.1168 1.95179 11.06 1.91863C10.1497 1.38897 9.11318 1.11499 8.06001 1.12563C7.01414 1.11001 5.98473 1.38711 5.08801 1.92563C4.97423 1.99379 4.89219 2.10435 4.85994 2.233C4.82768 2.36165 4.84785 2.49785 4.91601 2.61163C4.98417 2.7254 5.09474 2.80744 5.22339 2.8397C5.35204 2.87196 5.48823 2.85179 5.60201 2.78363C6.34141 2.33379 7.19483 2.10672 8.06001 2.12963C8.93842 2.11023 9.80463 2.33787 10.56 2.78663C10.6745 2.85166 10.81 2.86893 10.9371 2.83466C11.0642 2.8004 11.1727 2.71738 11.239 2.60363V2.60363ZM11.326 12.0926C12.0457 11.6371 12.6573 11.03 13.118 10.3136C13.5725 9.60338 13.861 8.79978 13.962 7.96263C13.9635 7.94299 13.9635 7.92327 13.962 7.90363C13.9629 7.78063 13.9184 7.66164 13.837 7.5694C13.7556 7.47715 13.6431 7.41814 13.521 7.40363C13.4557 7.39581 13.3896 7.40095 13.3263 7.41874C13.263 7.43653 13.2038 7.46663 13.1522 7.50731C13.1005 7.548 13.0574 7.59847 13.0253 7.65583C12.9932 7.7132 12.9727 7.77633 12.965 7.84163C12.8816 8.52893 12.6444 9.18861 12.271 9.77162C11.8893 10.3647 11.3829 10.8673 10.787 11.2446C10.7156 11.2897 10.6568 11.3522 10.6161 11.4261C10.5753 11.5001 10.554 11.5832 10.554 11.6676C10.5538 11.7623 10.5809 11.855 10.632 11.9346C10.6772 12.0058 10.7397 12.0645 10.8137 12.105C10.8876 12.1456 10.9707 12.1668 11.055 12.1666C11.1503 12.1696 11.2444 12.1449 11.326 12.0956V12.0926ZM5.51201 11.9376C5.54715 11.8821 5.57101 11.8203 5.58224 11.7556C5.59346 11.6909 5.59183 11.6246 5.57744 11.5605C5.56305 11.4964 5.53617 11.4358 5.49835 11.3821C5.46053 11.3285 5.4125 11.2827 5.35701 11.2476C4.76147 10.8712 4.25506 10.3696 3.87301 9.77763C3.49986 9.19412 3.26267 8.53418 3.17901 7.84663C3.1712 7.78142 3.15063 7.71839 3.11846 7.66114C3.08629 7.60389 3.04316 7.55354 2.99153 7.51296C2.9399 7.47238 2.88078 7.44236 2.81755 7.42463C2.75432 7.4069 2.68821 7.4018 2.62301 7.40963C2.55781 7.41743 2.49478 7.43801 2.43753 7.47018C2.38028 7.50234 2.32992 7.54548 2.28934 7.59711C2.24876 7.64874 2.21875 7.70786 2.20102 7.77109C2.18329 7.83432 2.17819 7.90042 2.18601 7.96563C2.28792 8.80256 2.57634 9.60597 3.03001 10.3166C3.49127 11.0326 4.10274 11.6396 4.82201 12.0956C4.90181 12.1463 4.99448 12.173 5.08901 12.1726C5.17336 12.1728 5.25638 12.1516 5.33034 12.111C5.4043 12.0705 5.4668 12.0118 5.51201 11.9406V11.9376Z" fill="black"/>
</svg>

<svg id="Layer_1" data-name="Layer 1" xmlns="http://www.w3.org/2000/svg" viewBox="0 0 16 16"><title>groups</title><path d="M5.29,5.972V6.5a.948.948,0,0,1-.031.218.633.633,0,0,1-.165.257.8.8,0,0,1-.239.141.63.63,0,0,1-.2.031.684.684,0,0,1-.091-.006l-3.691,0a.985.985,0,0,1-.216-.029.648.648,0,0,1-.245-.147A.8.8,0,0,1,.26,6.723.61.61,0,0,1,.233,6.43L.228,5.972a.663.663,0,0,1,.461-.627,5.264,5.264,0,0,0,.993-.467,1.55,1.55,0,0,1-.2-.44.909.909,0,0,1-.1-.89V3.17a1.183,1.183,0,0,1,.078-.5,1.25,1.25,0,0,1,.3-.458,1.3,1.3,0,0,1,.467-.288,1.4,1.4,0,0,1,.544-.07,1.061,1.061,0,0,1,.459.059,1.28,1.28,0,0,1,.481.29,1.221,1.221,0,0,1,.368,1.03l0,.273a.756.756,0,0,1,.051.121.853.853,0,0,1-.065.688A.909.909,0,0,1,4,4.428a1.754,1.754,0,0,1-.192.453,6.385,6.385,0,0,0,1.06.477.485.485,0,0,1,.175.11,1.16,1.16,0,0,1,.146.2A.342.342,0,0,1,5.29,5.972ZM10.7,13.406a.652.652,0,0,0-.375-.323v0a4.255,4.255,0,0,1-1.035-.531,1.6,1.6,0,0,0,.172-.392.867.867,0,0,0,.079-.118.843.843,0,0,0,.1-.335.863.863,0,0,0-.039-.353.894.894,0,0,0-.05-.12V10.9A1.262,1.262,0,0,0,8.2,9.528,1.262,1.262,0,0,0,6.848,10.9v.365a.923.923,0,0,0,.086.866,1.568,1.568,0,0,0,.2.447c-.264.154-.756.374-1.047.5a.668.668,0,0,0-.438.62l.005.458a.648.648,0,0,0,.031.3.81.81,0,0,0,.153.237.637.637,0,0,0,.246.147.977.977,0,0,0,.215.03l3.691-.005a.68.68,0,0,0,.09.006.618.618,0,0,0,.2-.031.789.789,0,0,0,.246-.147.658.658,0,0,0,.158-.251.941.941,0,0,0,.032-.217v-.414A.588.588,0,0,0,10.7,13.406Zm4.822-7.94a.49.49,0,0,0-.173-.108,5.7,5.7,0,0,1-1.007-.465,1.565,1.565,0,0,0,.185-.413.783.783,0,0,0,.079-.118.854.854,0,0,0,.065-.688.826.826,0,0,0-.049-.119V3.219A1.263,1.263,0,0,0,13.266,1.85a1.263,1.263,0,0,0-1.352,1.369v.364A.924.924,0,0,0,12,4.45a1.559,1.559,0,0,0,.2.446c-.264.154-.756.375-1.048.5a.668.668,0,0,0-.437.62l0,.459a.634.634,0,0,0,.027.292.777.777,0,0,0,.158.248.632.632,0,0,0,.248.148.95.95,0,0,0,.212.029l3.691,0a.707.707,0,0,0,.091.006.652.652,0,0,0,.2-.03.835.835,0,0,0,.238-.142.625.625,0,0,0,.162-.246.925.925,0,0,0,.034-.228V5.972A.7.7,0,0,0,15.519,5.466ZM11.24,2.6a.5.5,0,0,0-.179-.685,5.848,5.848,0,0,0-3-.793,5.61,5.61,0,0,0-2.972.8.5.5,0,0,0,.514.858,4.5,4.5,0,0,1,2.458-.654,4.692,4.692,0,0,1,2.5.657A.5.5,0,0,0,11.24,2.6Zm.087,9.489a5.85,5.85,0,0,0,1.792-1.779,5.608,5.608,0,0,0,.844-2.351.4.4,0,0,0,0-.059.5.5,0,0,0-.441-.5.5.5,0,0,0-.556.438,4.607,4.607,0,0,1-.694,1.93,4.851,4.851,0,0,1-1.484,1.473.5.5,0,0,0-.233.423.493.493,0,0,0,.078.267.5.5,0,0,0,.423.232A.494.494,0,0,0,11.327,12.092Zm-5.814-.155a.5.5,0,0,0-.155-.69A4.851,4.851,0,0,1,3.874,9.774,4.62,4.62,0,0,1,3.18,7.843a.5.5,0,0,0-.556-.437.5.5,0,0,0-.437.556,5.635,5.635,0,0,0,.844,2.351,5.872,5.872,0,0,0,1.792,1.779.494.494,0,0,0,.267.077A.5.5,0,0,0,5.513,11.937Z"/></svg>
